src/topics/icons/haskell.svg

<svg height="181" preserveAspectRatio="xMidYMid" viewBox="0 0 256 181" width="256" xmlns="http://www.w3.org/2000/svg"><path d="m0 180.6639 60.2219918-90.3319498-60.2219918-90.3319502h45.1659748l60.2219922 90.3319502-60.2219922 90.3319498z" fill="#f97e2f"/><path d="m60.2219918 180.6639 60.2219922-90.3319498-60.2219922-90.3319502h45.1659752l120.441908 180.6639h-45.165975l-37.636929-56.456431-37.639004 56.456431z" fill="#95653a"/><g fill="#f97e2f"><path d="m205.757262 127.970954-20.072615-30.1099583 70.257262-.0020745v30.1120328z"/><path d="m175.647303 82.8049793-20.074689-30.1099584 100.369295-.0020746v30.112033z"/></g></svg>

<?xml version="1.0" encoding="UTF-8" standalone="no"?>
<svg width="256px" height="181px" viewBox="0 0 256 181" version="1.1" xmlns="http://www.w3.org/2000/svg" xmlns:xlink="http://www.w3.org/1999/xlink" preserveAspectRatio="xMidYMid">
	<g>
		<path d="M0,180.6639 L60.2219918,90.3319502 L0,0 L45.1659748,0 L105.387967,90.3319502 L45.1659748,180.6639 L0,180.6639 L0,180.6639 Z" fill="#F97E2F"></path>
		<path d="M60.2219918,180.6639 L120.443984,90.3319502 L60.2219918,0 L105.387967,0 L225.829875,180.6639 L180.6639,180.6639 L143.026971,124.207469 L105.387967,180.6639 L60.2219918,180.6639 L60.2219918,180.6639 Z" fill="#95653A"></path>
		<path d="M205.757262,127.970954 L185.684647,97.8609957 L255.941909,97.8589212 L255.941909,127.970954 L205.757262,127.970954 L205.757262,127.970954 Z" fill="#F97E2F"></path>
		<path d="M175.647303,82.8049793 L155.572614,52.6950209 L255.941909,52.6929463 L255.941909,82.8049793 L175.647303,82.8049793 L175.647303,82.8049793 Z" fill="#F97E2F"></path>
	</g>
</svg>
